X: 79
T: Corn Rigs
M: C|
L: 1/8
Z: Mary Lou Knacks?
N: Pickups moved to start of phrase.
R: reel
K: D
A2 \
| "D"dc de f2 ed | "A"cB cd e2 A2 | "D"dc de fg ef | d2 ab a2 (3ABc |
| "D"dc de f2 ed | "A"cB cd e2 A2 | "G"Bc dB "A"ed cB | "D"A2 d2 d2 :|
|: (3ABc \
| "D"d2 a2 fg a2 | "A"cB cd ec A2 | "D"d2 a2 fg ef | d2 ab a2 (3ABc |
| "D"d2 a2 "G"ba gf | "Em"gf ed "A"cd eA | "G"Bc dB "A"ed cB | "D"A2 d2 d2 :|
